chrome/urlbar/document.svg

<svg xmlns="http://www.w3.org/2000/svg" width="16" height="16" viewBox="0 0 16 16">
   <path
   style="fill:context-fill;fill-opacity:context-fill-opacity"
   d="M 4 0 C 2.89543 0 2 0.89543 2 2 L 2 14 C 2 15.1046 2.89543 16 4 16 L 12 16 C 13.1046 16 14 15.1046 14 14 L 14 5.4140625 C 14 5.0162425 13.841847 4.6348256 13.560547 4.3535156 L 9.6464844 0.43945312 C 9.3651844 0.15815313 8.9837375 -3.7007434e-17 8.5859375 0 L 4 0 z M 4 1 L 8 1 L 8 4.5 C 8 5.32843 8.6716 6 9.5 6 L 13 6 L 13 14 C 13 14.5523 12.5523 15 12 15 L 4 15 C 3.44772 15 3 14.5523 3 14 L 3 2 C 3 1.44772 3.44772 1 4 1 z M 9 1.2070312 L 12.792969 5 L 9.5 5 C 9.2239 5 9 4.77614 9 4.5 L 9 1.2070312 z " />
</svg>

<svg xmlns="http://www.w3.org/2000/svg" width="16" height="16">
  <path style="fill:context-fill;fill-opacity:context-fill-opacity" d="M4 0a2 2 0 0 0-2 2v12a2 2 0 0 0 2 2h8a2 2 0 0 0 2-2V5.414a1.5 1.5 0 0 0-.44-1.06L9.647.439A1.5 1.5 0 0 0 8.586 0H4zm0 1h4v3.5A1.5 1.5 0 0 0 9.5 6H13v8a1 1 0 0 1-1 1H4a1 1 0 0 1-1-1V2a1 1 0 0 1 1-1zm5 .207L12.793 5H9.5a.5.5 0 0 1-.5-.5V1.207z"/>
</svg>
